logos/geetest-icon.svg

<?xml version="1.0" encoding="UTF-8"?>
<svg width="256px" height="257px" viewBox="0 0 256 257" version="1.1" xmlns="http://www.w3.org/2000/svg" preserveAspectRatio="xMidYMid">
    <title>GeeTest</title>
    <g>
        <path d="M255.275481,115.988577 L174.85378,115.988577 C168.773042,92.3764309 146.129144,76.9810876 122.000052,80.0538934 C97.8709603,83.1267001 79.784904,103.708946 79.784904,128.095466 C79.784904,152.481985 97.8709603,173.064231 122.000052,176.137037 C146.129144,179.209843 168.773042,163.8145 174.85378,140.202354 L230.641806,140.202354 C225.426506,185.370519 191.454543,221.854866 146.868259,230.171342 C102.281973,238.487819 57.4962067,216.693794 36.4282889,176.428117 C15.360371,136.162442 22.9315235,86.830711 55.098458,54.7779766 C87.2653929,22.7252423 136.514287,15.4386517 176.544326,36.8095259 C170.071634,54.9008348 177.626435,75.0296402 194.389065,84.3545594 C211.151694,93.6794794 232.184272,89.4536085 244.068845,74.3728867 C255.953417,59.2921646 255.189066,37.7990205 242.263418,23.6052306 C229.337769,9.41144083 208.058418,6.69816521 192.000749,17.1963665 C141.829557,-11.8456864 78.4579002,-3.48094523 37.4931671,37.5905933 C-3.47156598,78.6621317 -11.8148942,142.199354 17.1511477,192.501845 C46.1171896,242.804335 105.169972,267.329259 161.128804,252.296505 C217.087636,237.263751 256,186.421709 256,128.337603 C256,123.494848 255.758493,119.378505 255.275481,115.988577 Z M128.001497,152.309243 C114.663456,152.309243 103.850836,141.468366 103.850836,128.095466 C103.850836,114.722566 114.663456,103.881688 128.001497,103.881688 C141.339539,103.881688 152.152158,114.722566 152.152158,128.095466 C152.152158,141.468366 141.339539,152.309243 128.001497,152.309243 Z M213.25333,35.598837 C219.114149,35.598837 224.397873,39.1385355 226.640711,44.5673765 C228.883549,49.9962175 227.643813,56.2450838 223.499588,60.4001388 C219.355364,64.5551939 213.122786,65.7981707 207.708096,63.5494711 C202.293405,61.3007715 198.762934,56.0032385 198.762934,50.1271033 C198.762934,42.1033634 205.250506,35.598837 213.25333,35.598837 Z" fill="#347EFF"></path>
    </g>
</svg>

<svg preserveAspectRatio="xMidYMid" viewBox="0 0 256 257" xmlns="http://www.w3.org/2000/svg">
  <path fill="#347EFF" d="M255.275 115.989h-80.421C168.773 92.376 146.129 76.98 122 80.054c-24.129 3.073-42.215 23.655-42.215 48.041 0 24.387 18.086 44.97 42.215 48.042 24.13 3.073 46.773-12.322 52.854-35.935h55.788c-5.215 45.169-39.187 81.653-83.774 89.97-44.586 8.316-89.372-13.478-110.44-53.744-21.068-40.266-13.496-89.597 18.67-121.65 32.167-32.053 81.416-39.34 121.446-17.968-6.472 18.09 1.082 38.22 17.845 47.545 16.763 9.324 37.795 5.099 49.68-9.982 11.884-15.08 11.12-36.574-1.806-50.768-12.925-14.194-34.205-16.907-50.262-6.409C141.83-11.846 78.458-3.48 37.493 37.591S-11.815 142.199 17.151 192.5c28.966 50.303 88.019 74.828 143.978 59.796C217.088 237.264 256 186.422 256 128.337c0-4.842-.242-8.958-.725-12.348Zm-127.274 36.32c-13.338 0-24.15-10.84-24.15-24.214 0-13.372 10.812-24.213 24.15-24.213 13.339 0 24.151 10.84 24.151 24.213 0 13.373-10.812 24.214-24.15 24.214ZM213.253 35.6a14.49 14.49 0 0 1 13.388 8.968A14.556 14.556 0 0 1 223.5 60.4a14.463 14.463 0 0 1-15.792 3.15 14.529 14.529 0 0 1-8.945-13.423c0-8.024 6.488-14.528 14.49-14.528Z"/>
</svg>
